<?xml version="1.0" encoding="UTF-8"?>
<map version="1.9" tiledversion="1.9.2" orientation="orthogonal" renderorder="right-down" width="32" height="18" tilewidth="8" tileheight="8" infinite="0" nextlayerid="3" nextobjectid="1">
 <tileset firstgid="1" name="platformer" tilewidth="8" tileheight="8" tilecount="64" columns="8">
  <image source="E:/Main_for_all/Python_Projects/Fantasy_Game_Project/graphics/tilesets/platformer.png" width="64" height="64"/>
 </tileset>
 <tileset firstgid="65" name="topdown" tilewidth="8" tileheight="8" tilecount="64" columns="8">
  <image source="E:/Main_for_all/Python_Projects/Fantasy_Game_Project/graphics/tilesets/topdown.png" width="64" height="64"/>
 </tileset>
 <layer id="1" name="Tile Layer 1" width="32" height="18">
  <data encoding="csv">
0,0,0,0,0,0,0,0,0,0,0,0,0,0,0,0,0,0,0,0,0,0,0,0,0,0,0,0,0,0,0,0,
0,0,0,0,0,0,33,0,0,0,0,0,0,0,0,0,0,0,0,0,0,0,0,0,0,0,0,0,0,0,0,0,
0,0,0,0,21,2,3,4,5,0,0,0,0,0,0,0,0,0,0,0,0,0,0,0,0,0,0,0,0,0,0,0,
0,0,0,0,0,12,12,18,12,0,0,0,0,0,0,0,0,0,0,0,0,0,0,0,0,0,0,0,0,0,0,0,
0,0,0,0,0,12,28,0,37,0,0,0,0,1073741844,34,0,0,0,0,0,0,0,0,0,0,0,0,0,0,0,0,0,
0,0,0,0,0,37,0,0,0,0,0,2,3,4,5,0,0,0,0,0,0,0,0,0,0,0,0,0,0,0,0,0,
0,0,34,0,0,0,0,0,0,0,0,37,20,21,12,0,0,0,0,0,0,0,0,0,0,0,0,0,0,0,0,0,
0,0,2,3,2,3,4,5,0,0,0,0,0,0,37,0,0,0,0,0,0,0,0,0,0,0,0,0,0,0,0,0,
0,0,18,19,0,12,12,26,0,0,0,0,0,0,0,0,0,0,0,0,0,0,0,0,0,0,0,0,0,0,0,0,
0,0,0,0,0,0,37,0,0,0,0,0,0,0,0,0,0,0,0,0,0,0,0,0,0,0,0,0,0,0,0,0,
0,0,0,0,0,0,0,0,0,33,0,0,0,0,0,0,0,0,0,0,0,0,0,0,0,0,0,0,0,0,0,0,
0,0,0,0,0,0,0,0,2,3,4,2,5,0,0,0,2147483681,0,34,0,0,0,0,0,0,0,0,0,0,0,0,0,
0,0,0,0,0,21,2,12,12,12,12,37,2,2,3,4,3,2,22,0,0,0,0,0,0,0,0,0,0,0,0,0,
0,0,0,0,0,0,0,12,12,12,22,0,0,0,20,0,0,0,0,0,0,0,0,0,0,0,0,0,0,0,0,0,
0,0,0,0,0,0,0,0,26,0,0,0,0,0,0,0,0,0,0,0,0,0,0,0,0,0,0,0,0,0,0,0,
0,0,0,0,0,0,0,0,0,0,0,0,0,0,0,0,0,0,0,0,0,0,0,0,0,0,0,0,0,0,0,0,
0,0,0,0,0,0,0,0,0,0,0,0,0,0,0,0,0,0,0,0,0,0,0,0,0,0,0,0,0,0,0,0,
0,0,0,0,0,0,0,0,0,0,0,0,0,0,0,0,0,0,0,0,0,0,0,0,0,0,0,0,0,0,0,0
</data>
 </layer>
</map>
